images/datosIco3.svg

<svg viewBox="0 0 45.07 42.37" xmlns="http://www.w3.org/2000/svg"><g fill="#fff"><path d="m6 37.58h33a1.24 1.24 0 0 0 1.25-1.25v-28a1.24 1.24 0 0 0 -1.25-1.22h-6.18v-1.11a1.25 1.25 0 1 0 -2.5 0v1.11h-15.32v-1.11a1.26 1.26 0 1 0 -2.51 0v1.11h-6.49a1.24 1.24 0 0 0 -1.21 1.25v28a1.25 1.25 0 0 0 1.21 1.22zm1.26-28h5.16v.67a1.26 1.26 0 1 0 2.51 0v-.64h15.39v.67a1.25 1.25 0 1 0 2.5 0v-.67h5v3.24h-30.52zm0 5.75h30.52v19.78h-30.48z"/><path d="m31.57 21.11h-18a1.25 1.25 0 0 0 0 2.5h18a1.25 1.25 0 0 0 0-2.5z"/><path d="m22.55 27.16h-9a1.26 1.26 0 0 0 0 2.51h9a1.26 1.26 0 0 0 0-2.51z"/></g></svg>

<svg id="_1170px_grid" data-name="1170px grid" xmlns="http://www.w3.org/2000/svg" viewBox="0 0 45.07 42.37"><defs><style>.cls-1{fill:#fff;}</style></defs><title>Artboard 10</title><path class="cls-1" d="M6,37.58H39a1.24,1.24,0,0,0,1.25-1.25v-28A1.24,1.24,0,0,0,39,7.11H32.82V6a1.25,1.25,0,1,0-2.5,0V7.11H15V6a1.26,1.26,0,1,0-2.51,0V7.11H6A1.24,1.24,0,0,0,4.79,8.36v28A1.25,1.25,0,0,0,6,37.58Zm1.26-28h5.16v.67a1.26,1.26,0,1,0,2.51,0V9.61H30.32v.67a1.25,1.25,0,1,0,2.5,0V9.61h5v3.24H7.3Zm0,5.75H37.78V35.11H7.3Z"/><path class="cls-1" d="M31.57,21.11h-18a1.25,1.25,0,0,0,0,2.5h18a1.25,1.25,0,0,0,0-2.5Z"/><path class="cls-1" d="M22.55,27.16h-9a1.26,1.26,0,0,0,0,2.51h9a1.26,1.26,0,0,0,0-2.51Z"/></svg>
